X: 22599
T: Lady On The Boat, The
R: jig
M: 6/8
K: Dmajor
|:A|dfA d2A|dfA d2f|a2f fed|e3 ecA|
dfA d2A|dfA d2f|a2f efe|d3 d2:|
|:g|f3 gfg|a3 f2g|a2f fed|e3 ecA|
f3 gfg|a3 f2g|a2f efe|d3 d2:|

